symbols/web/switch_video/materialsymbolsoutlined/switch_video_wght200_20px.svg

<svg xmlns="http://www.w3.org/2000/svg" height="20" width="20"><path d="m6.75 12.354.646-.625-1.271-1.271h5.229l-1.271 1.271.625.625L13.083 10l-2.375-2.354-.625.625 1.271 1.271H6.125l1.271-1.271-.646-.625L4.396 10Zm-2.417 3.479q-.604 0-1.021-.406-.416-.406-.416-1.031V5.604q0-.625.416-1.031.417-.406 1.021-.406h8.813q.604 0 1.01.406t.406 1.031v3.75l2.542-2.542v6.376l-2.542-2.542v3.75q0 .625-.406 1.031-.406.406-1.01.406Zm0-.916h8.813q.208 0 .354-.146t.146-.375V5.604q0-.229-.146-.375t-.354-.146H4.333q-.229 0-.375.146t-.146.375v8.792q0 .229.146.375t.375.146Zm-.521 0V5.083 14.917Z"/></svg>

<svg xmlns="http://www.w3.org/2000/svg" height="20" width="20"><path d="M6.75 12.354 7.396 11.729 6.125 10.458H11.354L10.083 11.729L10.708 12.354L13.083 10L10.708 7.646L10.083 8.271L11.354 9.542H6.125L7.396 8.271L6.75 7.646L4.396 10ZM4.333 15.833Q3.729 15.833 3.312 15.427Q2.896 15.021 2.896 14.396V5.604Q2.896 4.979 3.312 4.573Q3.729 4.167 4.333 4.167H13.146Q13.75 4.167 14.156 4.573Q14.562 4.979 14.562 5.604V9.354L17.104 6.812V13.188L14.562 10.646V14.396Q14.562 15.021 14.156 15.427Q13.75 15.833 13.146 15.833ZM4.333 14.917H13.146Q13.354 14.917 13.5 14.771Q13.646 14.625 13.646 14.396V5.604Q13.646 5.375 13.5 5.229Q13.354 5.083 13.146 5.083H4.333Q4.104 5.083 3.958 5.229Q3.812 5.375 3.812 5.604V14.396Q3.812 14.625 3.958 14.771Q4.104 14.917 4.333 14.917ZM3.812 14.917Q3.812 14.917 3.812 14.771Q3.812 14.625 3.812 14.396V5.604Q3.812 5.375 3.812 5.229Q3.812 5.083 3.812 5.083Q3.812 5.083 3.812 5.229Q3.812 5.375 3.812 5.604V14.396Q3.812 14.625 3.812 14.771Q3.812 14.917 3.812 14.917Z"/></svg>
